Sources/FrostedUI/Resources/Icons.xcassets/monitorSize20.imageset/monitor-size-20.svg

<svg
  width="20"
  height="20"
  viewBox="0 0 20 20"
  fill="none"
  xmlns="http://www.w3.org/2000/svg"
  data-fui-icon="true"
>
  <path
    d="M3.95832 14.375H16.0417C16.9622 14.375 17.7083 13.6288 17.7083 12.7083V4.79167C17.7083 3.87119 16.9622 3.125 16.0417 3.125H3.95832C3.03785 3.125 2.29166 3.87119 2.29166 4.79167V12.7083C2.29166 13.6288 3.03785 14.375 3.95832 14.375zM2.65625 11.2604H17.0833M6 17.7604L14 17.7604M7.66928 14.375V17.7604M12.3307 14.375V17.7604"
    stroke="currentColor"
    stroke-width="1.5"
    stroke-linecap="round"
    stroke-linejoin="round"
  />
</svg>

<svg xmlns="http://www.w3.org/2000/svg" width="20" height="20" fill="none" data-fui-icon="true" viewBox="0 0 20 20"><path stroke="currentColor" stroke-linecap="round" stroke-linejoin="round" stroke-width="1.5" d="M3.958 14.375h12.084c.92 0 1.666-.746 1.666-1.667V4.792c0-.92-.746-1.667-1.666-1.667H3.958c-.92 0-1.666.746-1.666 1.667v7.916c0 .92.746 1.667 1.666 1.667M2.656 11.26h14.427M6 17.76h8m-6.33-3.385v3.385m4.66-3.385v3.385"/></svg>
